X: 1454
T: Nereden Sevdim O Zalim Kadını
C: Selahaddin Pınar
O: Turkey
F: http://compmusic.upf.edu/node/140
N: kurdilihicazkar--sarki--aksak--nereden_sevdim--selahaddin_pinar
N: makam= kurdilihicazkar
N: form= sarki
N: usul= aksak = 9/8
M: 9/8
L: 1/16
K: C _B _e _A 
Q: 1/4=96
%%MIDI tuningsystem comma53
z4 f2g2 abg2 aa/g/ab (3bag | f4c'2 c'=ab3/2a/ g/f/gg2 f2a2  | 
w:  Ne re den  *  *  sev  |  *  dim  o  *  za *  *  *  *  lim   | 
g=abc' baag g4 fedc B=A | z4f2 g2ab g2aa/g/ ab(3bag  | 
w:  *  *  *  *  ka *  dı *  nı  SAZ  |  Ne re den  *  *  sev  | 
f4 c'2c'=a b3/2a/g/f/g g2f2 a2 | g=a bc'ba agg4a3/2g/ a3/2g/ab  | 
w:  *  dim  o  *  za *  *  *  *  lim   |  *  *  *  *  ka *  dı *  nı  SAZ  | 
g4 f2g2 aa/g/a2 aa/g/ac' ba | g3/2f/ e2fg gef2 g2g4(3feg  | 
w:  *  Ba na  zeh *  *  *  ret  |  *  *  *  ti  *  ha *  ya *  tın   | 
ga/b/a/g/f e3/2d/ce d4 .c2.B2 .A2 | \
w:  *  *  *  *  *  *  ta *  dı *  nı  SAZ  | 
.G4c2 BAG3FGA Bcde  | 
w:  *  Ba na  *  zeh *  ret  | 
fg3 fedc B4 e3/2d/ec Bg | fe dcBA AGG4c'3/2b/ agab  | 
w:  *  *  ti  *  ha *  ya tın   |  *  *  *  *  ta *  dı *  nı  SAZ  | 
c'4 z_1/4b2c' c'4 c'bc'b c'd' | d'd'/c'/ _1/4b2b2 b2bc' agc'2 b2a2  | 
w:  *  Sor ma yın  söy  |  *  *  *  *  le mem  as *  *  *  la   | 
g4 a2_1/4b2 c'4 c'3/2b/ag ab | c'4z_1/4b2c'c'4c'b c'bc'd'  | 
w:  *  a dı nı  SAZ  |  *  Sor ma yın  söy  | 
d'd'/c'/_1/4b2 b2b2 bc'ag c'2b2 a2 | \
w:  *  *  *  *  le mem  as *  *  *  la   | 
g3/2^f/ e2g2 g2g4a3/2g/ a3/2g/ab  | 
w:  *  *  *  a dı nı  SAZ  | 
g4 f2g2 aa/g/a2 aa/g/ac' ba | g3/2f/ e2fg gef2 g2g4(3feg  | 
w:  *  Ba na  zeh *  *  *  ret  |  *  *  *  ti  *  ha *  ya *  tın   | 
ga/b/a/g/f e3/2d/ce d4 .c2.B2 .A2 | \
w:  *  *  *  *  *  *  ta *  dı *  nı  SAZ  | 
.G4c2 BAG3FGA Bcde  | 
w:  *  Ba na  *  zeh *  ret  | 
fg3 fedc B4 e3/2d/ec Bg | fe dcBA AGG4|
w:  *  *  ti  *  ha *  ya tın   |  *  *  *  *  ta *  dı *  nı   | 


